X:1
T:James Gibb editions
T:Chi mi dimandarà - Hassler
T:#
%%score [ 1 2 3 4 ]
L:1/8
Q:1/4=120
M:4/4
K:C
V:1 treble nm="Soprano" snm="S"
V:2 treble nm="Alto" snm="A"
V:3 treble-8 nm="Tenor" snm="T"
V:4 bass nm="Bass" snm="B"
V:1
"^Chi mi dimandarà""^Hans Leo Hassler\n(1564-1612)" z8 | A4 A2 A2 | c3 B A2 A2 | G2 G2 (cBAG | %4
w: |Chi mi di-|man- da- rà che|co- sa~~è~~a- mo\- * * *|
 F2) FF (_BAGF | E2 D2 E4) |[M:4/4] D8 | z8 | z8 | z8 | z4 E4 | E2 E2 c3 B | A8 | z2 A2 A2 A2 | %14
w: * re, a- mo\- * * *||re||||chi|mi di- man- da-|rà,|chi mi di-|
 c3 B A2 A2 | G2 G2 (AGFE | D2) DD (GFED | ^C2 D4 C2) | D8 :| A4 A3 B | c3 A B4 | z8 | z8 | z8 | %24
w: man- da- rà che|co- sa~~è~~a- mo\- * * *|* re, a- mo\- * * *||re|Io gli ri-|spon- de- rò,||||
 z8 | z4 A4- | A4 A3 B | c3 A B4 | z8 | d4 d4- | d4 c4 | B8 | ^c8 | z8 |: A2 cc B2 A2 | z8 | %36
w: |io|* gli ri-|spon- de- rò||pian- gen\-|* do|for-|te,||che~~a- mor è vi- ta,||
 A2 _BB A2 G2 | z2 G4 G2 | F2 F2 E2 E2 | z8 | z8 | z2 E4 F2 | D2 D2 ^C4 | D8 :| %44
w: che~~a- mor è vi- ta,|ch'ha co-|lor di mor- te,|||ch'ha co-|lor di mor-|te.|
V:2
 D4 D2 D2 | F3 E D4 | E2 C4 F2 | E4 E2 C2 | D2 D2 (GFED | ^C2 D4 C2) |[M:4/4] D2 F2 F2 F2 | %7
w: Chi mi di-|man- da- rà|che co- sa~~è~~a-|mo- re, che|co- sa~~è~~a- mo\- * * *||re, chi mi di-|
 A3 G F2 F2 | D2 D2 (GFED | C2) CC (FEDC | B,2 A,2 B,4) | A,2 E2 E2 E2 | F3 E D2 D2 | C2 C2 F4 | %14
w: man- da- rà che|co- sa~~è~~a- mo\- * * *|* re, a- mo\- * * *||re, chi mi di-|man- da- rà che|co- sa~~è~~a- mo-|
 E2 C2 C2 C2 | E3 D C2 C2 | (_B,3 C D2) B,2 | A,8 | A,8 :| D4 D3 D | E3 D D4 | z8 | D4 D4- | %23
w: re, chi mi di-|man- da- rà che|co\- * * sa~~è~~a-|mo-|re|Io gli ri-|spon- de- rò||pian- gen\-|
 D4 C4 | B,8 | ^C8 | D4 D3 D | E3 D D4 | z4 D4- | D4 A4 | ^G4 (A4- | A4 ^G4) | A8 | E2 FF E2 D2 |: %34
w: * do|for-|te,|io gli ri-|spon- de- rò|pian\-|* gen-|do for\-||te,|che~~a- mor è vi- ta,|
 F2 EA ^G2 A2 | D2 GF E2 D2 | F2 DD D2 _B,2 | z2 D4 E2 | C2 D2 B,2 ^C2 | z2 G,4 C2 | %40
w: che~~a- mor è vi- ta,|che~~a- mor è vi- ta,|che~~a- mor è vi- ta,|ch'ha co-|lor di mor- te,|ch'ha co-|
 _B,2 A,2 G,2 A,2 | z2 C4 C2 | _B,2 B,2 A,4 | A,8 :| %44
w: lor di mor- te|ch'ha co-|lor di mor-|te.|
V:3
 z8 | z8 | A4 A2 A2 | c3 B A2 A2 | (_B3 A G2) G2 | A8 |[M:4/4][K:treble-8] A8 | z2 A2 A2 A2 | %8
w: ||Chi mi di-|man- da- rà che|co\- * * sa~~è~~a-|mo-|re,|chi mi di-|
 =B3 A G2 c2 | A2 A2 (dcBA | ^G2 A4 G2) | A8 | z2 D2 D2 D2 | F3 E D2 D2 | A2 A2 F4 | E2 E2 (cBAG) | %16
w: man- da- rà che|co- sa~~è~~a- mo\- * * *||re,|chi mi di-|man- da- rà che|co- sa~è~a- mo-|re, che co\- * * *|
 F2 F2 (_BAGF | E2 D2 E4) | ^F8 :| ^F4 F3 G | G3 ^F G4 | B4 B4- | B4 A4 | (^G4 A4- | A4 ^G4) | A8 | %26
w: sa~~è a- mo\- * * *||re|Io gli ri-|spon- de- rò|pian- gen\-|* do|for\- *||te,|
 ^F4 F3 G | G3 ^F G4 | (B6 A2 | B2 c2 d4) | B4 c4 | e8 | e8 | ^c2 dd !courtesy!^c2 d2 |: %34
w: io gli ri-|spon- de- rò|pian\- *||gen- do|for-|te,|che~~a- mor è vi- ta,|
 d2 =cA e2 A2 | B2 Bd ^c2 d2 | D2 FG ^F2 G2 | z2 B4 c2 | A2 A2 ^G2 A2 | z2 E4 F2 | D2 F2 E2 F2 | %41
w: che~~a- mor è vi- ta,|che~~a- mor è vi- ta,|che~~a- mor è vi- ta,|ch'ha co-|lor di mor- te,|ch'ha co-|lor di mor- te,|
 z2 G4 A2 | F2 G2 E4 | ^F8 :| %44
w: ch'ha co-|lor di mor-|te|
V:4
 z8 | z8 | z8 | z8 | z8 | z8 |[M:4/4] D,4 D,2 D,2 | F,3 E, D,2 D,2 | G,2 G,2 E,4 | %9
w: ||||||Chi mi di-|man- da- rà che|co- sa~~è~~a- mo|
 F,2 F,2 D,2 D,2 | E,8 | A,,8 | z8 | z8 | z2 A,,2 A,,2 A,,2 | C,3 B,, A,,2 A,,2 | %16
w: re, che co- sa~~è~~a-|mo-|re,|||chi mi di-|man- da- rà che|
 (_B,,3 A,, G,,2) G,,2 | A,,8 | D,8 :| D,4 D,3 G,, | C,3 D, G,,4 | G,4 G,4- | G,4 F,4 | E,8- | %24
w: co\- * * sa~~è~~a-|mo-|re,|Io gli ri-|spon- de- rò|pian- gen\-|* do|for\-|
 E,8 | A,,8 | D,4 D,3 G,, | C,3 D, G,,4 | G,4 G,4- | G,4 F,4 | E,8- | E,8 | A,,8 | %33
w: |te,|io gli ri-|spon- de- rò|pian- gen\-|* do|for\-||te,|
 A,2 F,D, A,2 D,2 |: z8 | G,2 G,D, A,2 D,2 | D,2 _B,,G,, D,2 G,,2 | z2 G,4 E,2 | F,2 D,2 E,2 A,,2 | %39
w: che~~a- mor è vi- ta,||che~~a- mor è vi- ta,|che~~a- mor è vi- ta,|ch'ha co-|lor di mor- te,|
 z2 C,4 A,,2 | _B,,2 F,,2 C,2 F,,2 | z2 C,4 A,,2 | _B,,2 G,,2 A,,4 | D,8 :| %44
w: ch'ha co-|lor di mor- te,|ch'ha co-|lor di mor-|te.|

